X:1173
T:Litl-Ola mann
C:anon.
O:Norway
A:Saltdal
R:Vals, waltz
Z:Transcribed by Frank Nordberg - http://www.musicaviva.com
F:http://abc.musicaviva.com/tunes/norway/litl-ola-mann/litl-ola-mann-1.abc
%After P. L. Kristensen
M:3/4
L:1/8
K:D
d2d=cB2|d2d=cB2|d2d=c BA|G4D2|
w:Litl O-la mann Spell li-te grand li-ke nu s\aa kjem bru-ra!
d2d=cB2|d2d=cB2|d2d=c BA|B2B2d2|
w:Bru-ra va ong Kro-no va tung brur-pi-a va f\or-lo-ra Hei!
A2A2B2|G2G2B2|A2A2B2|G2G2B2|
w:l\os-ti kom kleg-gj\aen, fir skjel-ling p\aa veg-gjen Kj\os
A2A2BB|G2G2B2|A2A2BB|G2G2B2|
w:bru-ra f\or ho s\om-na Drekk \ol-et f\or da dom-na Gje
A2A2BB|G2G2e2|d3=c BA|G2G2 z2|
w:brur-svein sk\aa-la vat-ten S\aa sk\aa-la vi med ka-ran!
z2 z e d>c|d3e d>c|d3e d>c|dd dB G2|G2 z d d>=c|
w:De \aat opp mat, de \aat opp fat, de \aat opp al-le mi-ne skei-e De gjor-de
B2d2 =cc|B2 z d d>=c|d2 dB=c2|B2 z2z2|
w:pus som ver-re va De \aat opp mer-ra med grei-e.
W:
W:Litl Ola mann
W:Spell lite grand
W:like nu s\aa kjem brura!
W:Brura va ong
W:Krono va tung
W:brurpia va f\orlora Hei!
W:l\osti kom kleggj\aen,
W:fir skjelling p\aa veggjen
W:Kj\os brura f\or ho s\omna
W:Drekk \olet f\or da domna
W:Gje brursvein sk\aala vatten
W:S\aa sk\aala vi med karan!
W:  De \aat opp mat,
W:  de \aat opp fat,
W:  de \aat opp alle mine skeie
W:  De gjorde pus
W:  som verre va
W:  De \aat opp merra med greie.
W:
W:
W:  From Musica Viva - http://www.musicaviva.com
W:  the Internet center for free sheet music downloads.
